app/images/social/teleg.svg

<svg width="48" height="48" fill="none" xmlns="http://www.w3.org/2000/svg"><path d="M36 16l-8 21-9-9m17-12l-26 9 9 3 17-12zm0 0L19 28l17-12z" stroke="#030303" stroke-width="3" stroke-linecap="round" stroke-linejoin="round"/><path d="M24 44c11.046 0 20-8.954 20-20S35.046 4 24 4 4 12.954 4 24s8.954 20 20 20z" stroke="#030303" stroke-width="3" stroke-linecap="round" stroke-linejoin="round"/></svg>

<svg width="48" height="48" viewBox="0 0 48 48" fill="none" xmlns="http://www.w3.org/2000/svg">
<path d="M36 16L28 37L19 28M36 16L10 25L19 28L36 16ZM36 16L19 28L36 16Z" stroke="#030303" stroke-width="3" stroke-linecap="round" stroke-linejoin="round"/>
<path d="M24 44C35.046 44 44 35.046 44 24C44 12.954 35.046 4 24 4C12.954 4 4 12.954 4 24C4 35.046 12.954 44 24 44Z" stroke="#030303" stroke-width="3" stroke-linecap="round" stroke-linejoin="round"/>
</svg>
